X: 527
T:Palmer's Gate
M:4/4
L:1/8
R:Reel
C:Joe Liddy
S: June Ni Choramic at Nelson Flute Workshops 2001
N:Posted to the woodenflute mailing list June 2002
Z:Pat Higgins, converted to abc by Steve Mansfield
K:Em
GA|BEE2 BedB|AGAB GEDE|G3A BAGA|BedB A2GA|
BEE2 G3B|AGAB GEDE|GA(3Bcd edBA|EGFD EFGA:||
|Beed e3f|g2fg edBA|G2BG dGBG|G2(3Bcd edBd|
|Beed e3f|g2fg edBA|GA(3Bcd edBA|1EGFD EFGA|2EGFD E4:||
<end>
<start>
